X:78
T:Camp Chase (Adam Hurt)
C:From Adam Hurt
Z:abc-transcription Josh Larios <hades@elsewhere.org>, 2015.03.11
M:4/4
L:1/8
G:Key: D
K:D
A,B, |: DE FA d2 dA  | FA dB AG FA | EC EA e2 eA | EA ed BA GE | 
FD FA d2  dA | FD dB AG FA | G2 GA EF- FE | DE FD ED B,D | 
AB dB AG FG |1 AF Ac dA Bc :|2 AF Ac dc dB | 
Ad fd ed fd | Ad fd ed Bd | AB dB AG FG | AF Ac dc dB | 
Ad fd ed fd | !uppermordent!e2 df ed Bd | AB dB AG FG | AF Ac dA Bc | 

